X:01
T:Julia Delaney
N:P. W. Joyce printed a version of this under the title "Glenloe."
M:C|
L:1/8
K:F
|:"Dm"dcAG "Bb"F2 DF|"C"E2 CE "Dm"DEFA|dcAG "Bb"F2 EF|1 "Am"Dddc "Dm"defe:|
|2 "Am"Dddc "Dm"d3 e|]"Dm"fede fage|"C"c2 gc acgc|"Bb"fede fagf|
"Am"edcB "Dm"Ad d2|"Dm"fede fage|"C"c2 gc acgc|\
"Bb"fedc "Dm"dfdc|"Am"Addc "Dm"d4|]

